icons/air-vent.svg

<svg width="24" height="24" viewBox="0 0 24 24" fill="none" xmlns="http://www.w3.org/2000/svg">
<path d="M16.4796 11.5C16.4796 10.2773 17.1071 7.038 15.1138 7.038H8.88503C6.88558 7.038 7.51924 10.3308 7.51924 11.5M4.8615 19.1164C6.80417 19.1164 7.89791 16.1916 7.89791 14.6532M19.1362 19.1152C17.1935 19.1152 16.0998 16.1916 16.0998 14.6532M12 20.5V14.6532M4.59654 11.5H19.4035C22.677 11.5 23.049 3.5 19.4035 3.5H4.59654C0.950973 3.5 1.32299 11.5 4.59654 11.5Z" stroke="black" stroke-width="2" stroke-linecap="round" stroke-linejoin="round"/>
</svg>

<svg xmlns="http://www.w3.org/2000/svg" width="24" height="24" viewBox="0 0 24 24" fill="none" stroke="currentColor" stroke-width="2" stroke-linecap="round" stroke-linejoin="round">
<path d="M16.48 11.5c0-1.223.627-4.462-1.366-4.462H8.885c-2 0-1.366 3.293-1.366 4.462m-2.657 7.616c1.942 0 3.036-2.924 3.036-4.463m11.238 4.462c-1.942 0-3.036-2.923-3.036-4.462M12 20.5v-5.847M4.597 11.5h14.807c3.273 0 3.645-8 0-8H4.597c-3.646 0-3.274 8 0 8"/>
</svg>
